src/symbolic/devices/media-zip-symbolic.svg

<svg xmlns="http://www.w3.org/2000/svg" width="16" height="16"><path d="M3 1S1 1 1 3v11c0 1 1 1 1 1h12c1 0 1-1 1-1V3s0-2-2-2zm0 2h1v3h8V3h1v10H3z" fill="#444"/></svg>

<svg xmlns="http://www.w3.org/2000/svg" width="16" height="16" version="1.1">
 <path style="fill:#444444" d="M 3,1 C 3,1 1,1 1,3 V 14 C 1,15 2,15 2,15 H 14 C 15,15 15,14 15,14 V 3 C 15,3 15,1 13,1 Z M 3,3 H 4 V 6 H 12 V 3 H 13 V 13 H 3 Z"/>
</svg>
